tools/download-figma-icons/icons/outlined-medium/meravis.svg

<svg width="24" height="24" viewBox="0 0 24 24" fill="none" xmlns="http://www.w3.org/2000/svg">
<path fill-rule="evenodd" clip-rule="evenodd" d="M7.27262 22.5H9.46107V18.4673H7.27262V22.5ZM20.9 22.4999H10.9612V17.7173C10.9612 17.3025 10.6252 16.9673 10.2112 16.9673H6.52275C6.10801 16.9673 5.77277 17.3025 5.77277 17.7173V22.4999H3.57606V8.25846L11.9999 1.70059L20.15 8.04396V14.3003C20.15 14.7151 20.4852 15.0503 20.9 15.0503C21.314 15.0503 21.6499 14.7151 21.6499 14.3003V9.21169L22.7892 10.0989C22.9264 10.2054 23.0884 10.2572 23.2489 10.2572C23.4724 10.2572 23.6937 10.1574 23.8414 9.96767C24.0956 9.64068 24.0371 9.16894 23.7109 8.91469L12.4611 0.158622C12.1896 -0.0528739 11.8101 -0.0528739 11.5394 0.158622L0.28963 8.91469C-0.0366131 9.16894 -0.0958619 9.64068 0.158383 9.96767C0.412628 10.2932 0.883618 10.3524 1.21136 10.0989L2.07609 9.42543V23.2499C2.07609 23.6646 2.41134 23.9999 2.82608 23.9999H6.52275H10.2112H20.9C21.314 23.9999 21.6499 23.6646 21.6499 23.2499C21.6499 22.8352 21.314 22.4999 20.9 22.4999ZM10.2108 14.0273H6.52233C6.10759 14.0273 5.77235 14.3626 5.77235 14.7773C5.77235 15.1921 6.10759 15.5273 6.52233 15.5273H10.2108C10.6255 15.5273 10.9607 15.1921 10.9607 14.7773C10.9607 14.3626 10.6255 14.0273 10.2108 14.0273ZM6.52233 11.0875H10.2108C10.6255 11.0875 10.9607 11.4227 10.9607 11.8375C10.9607 12.2522 10.6255 12.5874 10.2108 12.5874H6.52233C6.10759 12.5874 5.77235 12.2522 5.77235 11.8375C5.77235 11.4227 6.10759 11.0875 6.52233 11.0875ZM10.2108 8.13656H6.52233C6.10759 8.13656 5.77235 8.4718 5.77235 8.88654C5.77235 9.30129 6.10759 9.63653 6.52233 9.63653H10.2108C10.6255 9.63653 10.9607 9.30129 10.9607 8.88654C10.9607 8.4718 10.6255 8.13656 10.2108 8.13656ZM13.4714 8.13656H17.1598C17.5746 8.13656 17.9098 8.4718 17.9098 8.88654C17.9098 9.30129 17.5746 9.63653 17.1598 9.63653H13.4714C13.0566 9.63653 12.7214 9.30129 12.7214 8.88654C12.7214 8.4718 13.0566 8.13656 13.4714 8.13656ZM17.1598 11.0875H13.4714C13.0566 11.0875 12.7214 11.4227 12.7214 11.8375C12.7214 12.2522 13.0566 12.5874 13.4714 12.5874H17.1598C17.5746 12.5874 17.9098 12.2522 17.9098 11.8375C17.9098 11.4227 17.5746 11.0875 17.1598 11.0875ZM15.869 18.9329L17.132 19.9671C17.921 20.6121 19.0865 20.4951 19.7307 19.7061C20.3757 18.9171 20.2609 17.7502 19.4727 17.1052L18.2105 16.0725L16.193 18.5377L15.869 18.9329ZM21.2967 20.0136C21.6754 20.2476 22.2971 20.5004 23.1536 20.3894C23.5736 20.3459 23.9404 20.6279 23.9936 21.0381C24.0469 21.4491 23.7559 21.8256 23.3456 21.8781C23.1364 21.9043 22.9354 21.9171 22.7434 21.9171C21.6552 21.9171 20.8542 21.5256 20.3509 21.1814C19.7539 21.6441 19.0272 21.8826 18.2975 21.8826C17.552 21.8826 16.8028 21.6358 16.1818 21.1281L14.3383 19.6184C14.0188 19.3566 13.9708 18.8842 14.2341 18.5632L14.5573 18.1679L13.0693 16.9492C12.7491 16.6867 12.7018 16.2142 12.9643 15.8932C13.2261 15.5737 13.6978 15.5257 14.0203 15.789L15.5075 17.0069L16.25 16.0995L14.762 14.8807C14.4418 14.6182 14.3946 14.1457 14.657 13.8255C14.9188 13.5053 15.3913 13.4573 15.7123 13.7205L17.2002 14.9385L17.525 14.5417C17.7867 14.2222 18.2585 14.1735 18.581 14.4367L20.4237 15.945C21.6492 16.9484 21.9701 18.6487 21.2967 20.0136Z" fill="black"/>
</svg>

<svg xmlns="http://www.w3.org/2000/svg" width="24" height="24" fill="none" viewBox="0 0 24 24"><path fill="currentColor" fill-rule="evenodd" d="M7.273 22.5H9.46v-4.033H7.273zm13.627 0h-9.939v-4.783a.75.75 0 0 0-.75-.75H6.523a.75.75 0 0 0-.75.75V22.5H3.576V8.258L12 1.701l8.15 6.343V14.3a.75.75 0 1 0 1.5 0V9.212l1.14.887a.75.75 0 0 0 1.051-.131.75.75 0 0 0-.13-1.053L12.46.159a.75.75 0 0 0-.922 0L.29 8.915a.751.751 0 0 0 .922 1.184l.865-.674V23.25c0 .415.335.75.75.75H20.9a.75.75 0 1 0 0-1.5m-10.69-8.473H6.523a.75.75 0 1 0 0 1.5h3.689a.75.75 0 1 0 0-1.5m-3.688-2.94h3.689a.75.75 0 1 1 0 1.5H6.522a.75.75 0 1 1 0-1.5m3.689-2.95H6.522a.75.75 0 1 0 0 1.5h3.689a.75.75 0 1 0 0-1.5m3.26 0h3.689a.75.75 0 1 1 0 1.5h-3.69a.75.75 0 1 1 0-1.5m3.689 2.95H13.47a.75.75 0 1 0 0 1.5h3.689a.75.75 0 1 0 0-1.5m-1.291 7.846 1.263 1.034a1.848 1.848 0 0 0 2.34-2.862l-1.262-1.032-2.017 2.465zm5.428 1.08c.378.235 1 .487 1.857.376a.75.75 0 1 1 .192 1.489q-.314.04-.603.04a4.2 4.2 0 0 1-2.392-.737 3.354 3.354 0 0 1-4.17-.053l-1.843-1.51a.75.75 0 0 1-.104-1.055l.323-.395-1.488-1.219a.75.75 0 0 1 .951-1.16l1.488 1.218.742-.908-1.488-1.218a.75.75 0 0 1 .95-1.16l1.488 1.217.325-.396a.75.75 0 0 1 1.056-.105l1.843 1.508a3.35 3.35 0 0 1 .873 4.069" clip-rule="evenodd"/></svg>
